findly-builder/apps/searchassist/src/assets/icons/content/latest-content-icons/success-check-o.svg

<svg width="34" height="34" viewBox="0 0 34 34" fill="none" xmlns="http://www.w3.org/2000/svg">
<path d="M31.1667 17.0002C31.1667 24.8237 24.8236 31.1668 17 31.1668C9.1765 31.1668 2.83337 24.8237 2.83337 17.0002C2.83337 9.17662 9.1765 2.8335 17 2.8335C24.8236 2.8335 31.1667 9.17662 31.1667 17.0002Z" fill="#C8E6C9"/>
<path d="M24.4984 10.3315L14.8863 19.955L10.9182 15.9982L8.91504 18.0014L14.8891 23.9613L26.5022 12.3347L24.4984 10.3315Z" fill="#4CAF50"/>
</svg>

<svg width="34" height="34" fill="none" xmlns="http://www.w3.org/2000/svg"><path d="M31.167 17c0 7.824-6.343 14.167-14.167 14.167-7.823 0-14.167-6.343-14.167-14.167C2.833 9.177 9.177 2.834 17 2.834c7.824 0 14.167 6.343 14.167 14.166Z" fill="#C8E6C9"/><path d="m24.498 10.332-9.612 9.623-3.968-3.957-2.003 2.003 5.974 5.96 11.613-11.626-2.004-2.004Z" fill="#4CAF50"/></svg>
